X: 130488
T: Major Moran's Favorite
S: "Treoir" 
Z: B.Black
M: 4/4
L: 1/8
R: reel
K: G
dc |: B2 BG ABGE | DGBG AGED | B2 BA Bcde |\
dBAG EGDE :|
G3 F G2 BG |A3 G A2 BA |Bdgd Bcdc |AcBG AGED :|
Bdgd Bdgd | egdg eg d2 | Bdgd Bdgd | egfa g4 :|
